src/Assets/icons/41-required-adaptivity/required-adaptivity.svg

<svg viewBox="0 0 2000 2000" xmlns="http://www.w3.org/2000/svg" xml:space="preserve" style="fill-rule:evenodd;clip-rule:evenodd;stroke-linecap:round;stroke-linejoin:round;stroke-miterlimit:1.5"><path d="M577.798 1507.27c-47.171-.61-59.797 59.58-118.654 79.6-58.856 20.02-107.505 40.98-138.257 11.24-30.752-29.74-12.948-102.57 21.952-144.02 134.614-159.89 640.37-651.457 771.601-801.502 34.81-39.79-10.36-92.063-8.85-182.471 3.01-181.031 128.96-279.976 310.02-279.976 181.06 0 328.05 146.995 328.05 328.051 0 181.057-119.35 283.583-300.41 283.583-38.43 0-138.45-9.612-167.31 13.658-96.74 78.01-424.568 366.817-478.365 471.827-31.309 61.12 99.619 91.44 95.494 145.09-4.126 53.65-129.11 153.63-182.594 159.54-53.484 5.92-85.505-84-132.677-84.62ZM1469.6 309.859c76.12 0 137.91 61.796 137.91 137.911 0 76.115-61.79 137.911-137.91 137.911-76.11 0-137.91-61.796-137.91-137.911 0-76.115 61.8-137.911 137.91-137.911Z" style="fill:#cfd8e5;stroke:#172d4d;stroke-width:30px" transform="translate(-24.374 98.466)"/><path d="M918.651 1538.61c-31.851-9.8-159.447-116.9-184.788-135.21" style="fill:#cfd8e5;stroke:#172d4d;stroke-width:30px" transform="translate(-115.374 80.706)"/></svg>

<?xml version="1.0" encoding="UTF-8" standalone="no"?>
<!DOCTYPE svg PUBLIC "-//W3C//DTD SVG 1.1//EN" "http://www.w3.org/Graphics/SVG/1.1/DTD/svg11.dtd">
<svg width="100%" height="100%" viewBox="0 0 2000 2000" version="1.1" xmlns="http://www.w3.org/2000/svg" xmlns:xlink="http://www.w3.org/1999/xlink" xml:space="preserve"  style="fill-rule:evenodd;clip-rule:evenodd;stroke-linecap:round;stroke-linejoin:round;stroke-miterlimit:1.5;">
    <g transform="matrix(1,0,0,1,0,63.3803)">
        <g id="solved" transform="matrix(1,0,0,1,0,-63.3803)">
            <path d="M577.798,1507.27C530.627,1506.66 518.001,1566.85 459.144,1586.87C400.288,1606.89 351.639,1627.85 320.887,1598.11C290.135,1568.37 307.939,1495.54 342.839,1454.09C477.453,1294.2 983.209,802.633 1114.44,652.588C1149.25,612.798 1104.08,560.525 1105.59,470.117C1108.6,289.086 1234.55,190.141 1415.61,190.141C1596.67,190.141 1743.66,337.136 1743.66,518.192C1743.66,699.249 1624.31,801.775 1443.25,801.775C1404.82,801.775 1304.8,792.163 1275.94,815.433C1179.2,893.443 851.372,1182.25 797.575,1287.26C766.266,1348.38 897.194,1378.7 893.069,1432.35C888.943,1486 763.959,1585.98 710.475,1591.89C656.991,1597.81 624.97,1507.89 577.798,1507.27ZM1469.6,309.859C1545.72,309.859 1607.51,371.655 1607.51,447.77C1607.51,523.885 1545.72,585.681 1469.6,585.681C1393.49,585.681 1331.69,523.885 1331.69,447.77C1331.69,371.655 1393.49,309.859 1469.6,309.859Z" style="fill:rgb(59,59,59);stroke:black;stroke-width:15px;"/>
        </g>
        <g transform="matrix(1,0,0,1,-91.0002,-81.141)">
            <path d="M918.651,1538.61C886.8,1528.81 759.204,1421.71 733.863,1403.4" style="fill:none;stroke:black;stroke-width:15px;"/>
        </g>
    </g>
</svg>
